Obsidian-SemiLight/actions/22s/noisereduction.svg

<svg viewBox="0 0 22 22" xmlns="http://www.w3.org/2000/svg"><g fill="#4d4d4d"><path d="m10.988281 3-4.988281 4.9902344v.0097656 1 4 1 .009766l4.988281 4.990234h1.011719v-.402344-15.1953122-.4023438zm3.335938 4.28125-.539063.8613281a4 4 0 0 1 1.214844 2.8574219 4 4 0 0 1 -1.210938 2.861328l.539063.863281a5 5 0 0 0 1.671875-3.724609 5 5 0 0 0 -1.675781-3.71875zm-11.324219.71875v1 4 1h2v-1-4-1z"/><path d="m13.865234 3.5371094-.24414.9765625a7 7 0 0 1 4.378906 6.4863281 7 7 0 0 1 -4.380859 6.478516l.24414.974609a8 8 0 0 0 5.136719-7.453125 8 8 0 0 0 -5.134766-7.4628906z" fill-opacity=".5"/></g></svg>

<svg xmlns="http://www.w3.org/2000/svg" viewBox="0 0 22 22">
  <defs id="defs3051">
    <style type="text/css" id="current-color-scheme">
      .ColorScheme-Text {
        color:#4d4d4d;
      }
      </style>
  </defs>
 <path 
     style="fill:currentColor;fill-opacity:1;stroke:none" 
     d="M 10.988281 3 L 6 7.9902344 L 6 8 L 6 9 L 6 13 L 6 14 L 6 14.009766 L 10.988281 19 L 12 19 L 12 18.597656 L 12 3.4023438 L 12 3 L 10.988281 3 z M 14.324219 7.28125 L 13.785156 8.1425781 A 4 4 0 0 1 15 11 A 4 4 0 0 1 13.789062 13.861328 L 14.328125 14.724609 A 5 5 0 0 0 16 11 A 5 5 0 0 0 14.324219 7.28125 z M 3 8 L 3 9 L 3 13 L 3 14 L 5 14 L 5 13 L 5 9 L 5 8 L 3 8 z "
     class="ColorScheme-Text"
     />
 <path 
     style="fill:currentColor;fill-opacity:0.5;stroke:none" 
     d="M 13.865234 3.5371094 L 13.621094 4.5136719 A 7 7 0 0 1 18 11 A 7 7 0 0 1 13.619141 17.478516 L 13.863281 18.453125 A 8 8 0 0 0 19 11 A 8 8 0 0 0 13.865234 3.5371094 z "
     class="ColorScheme-Text"
     />
</svg>
